flags/uy.svg

<svg xmlns="http://www.w3.org/2000/svg" xmlns:xlink="http://www.w3.org/1999/xlink" width="900" height="600" viewBox="-45 -45 243 162"><rect width="100%" height="100%" x="-45" y="-45" fill="#fff"/><path fill="none" stroke="#0038a8" stroke-width="18" d="M45-18h153M45 18h153M-45 54h243M-45 90h243"/><g fill="#fcd116" stroke="#000" stroke-miterlimit="20" stroke-width=".6"><g id="c"><g id="b"><g id="a"><path d="m0 0 .951 13.383c-12.366 8.949-4.816 14.24-13.58 17.105 5.834-6.243-1.782-6.15 4.882-19.626"/><path fill="none" d="M-4.21 10.163c-6.822 11.245-2.348 17.428-8.419 20.325"/></g><use xlink:href="#a" transform="scale(-1)"/></g><use xlink:href="#b" transform="rotate(90)"/></g><use xlink:href="#c" transform="rotate(45)"/><g id="f"><g id="e"><path id="d" d="M0 0h6L0 33-6 0h6v33"/><use xlink:href="#d" transform="scale(-1)"/></g><use xlink:href="#e" transform="rotate(90)"/></g><use xlink:href="#f" transform="rotate(45)"/><circle r="11"/><g fill="#000" stroke="none" transform="scale(.1)"><g id="g"><path d="M81-44c-7 8-11-6-36-6S16-35 12-38s21-21 29-22 31 7 40 16M52-35c7 6 1 19-6 19S26-28 32-36"/><path d="M19-26c1-12 11-14 27-14s23 12 29 15c-7 0-13-10-29-10s-16 0-27 10"/><path d="M22-23c4-6 9 6 20 6s17-3 24-8-10 12-21 12-26-6-23-10"/><path d="M56-17c13-7 5-17 0-19 2 2 10 12 0 19M0 43c6 0 8-2 16-2s27 11 38 7c-23 9-14 3-54 3h-5"/><path d="M58 57c-4-7-3-5-11-16 8 6 10 9 11 16"/><path d="M0 67c25 0 21-5 54-19-24 3-29 11-54 11h-5M0 30c7 0 9-5 17-5s19 3 24 7c1 1-3-8-11-9S25 9 16 7c0 4 3 3 4 9 0 5-9 5-11 0 2 8-4 8-9 8"/></g><use xlink:href="#g" transform="scale(-1 1)"/><path d="M0 76c-5 0-18 3 0 3s5-3 0-3"/></g></g></svg>

<?xml version="1.0" encoding="UTF-8"?>
<!DOCTYPE svg>
<svg width="900" height="600" viewBox="-45 -45 243 162" xmlns="http://www.w3.org/2000/svg" xmlns:xlink="http://www.w3.org/1999/xlink">
   <rect x="-45" y="-45" width="100%" height="100%" fill="white"/>
   <path stroke="#0038a8" stroke-width="18" fill="none" d="M 45,-18 h 153 M 45,18 h 153 M -45,54 h 243 M -45,90 h 243"/>
   <g id="sun" fill="#fcd116" stroke="black" stroke-width=".6" stroke-miterlimit="20">
      <g id="4wavyrays">
         <g id="2wavyrays">
            <g id="wavyray" transform="rotate(22.5)">
               <path d="M 0,0 L 6,12 C -2,25 7,27 0,33 C 3,25 -4,28 -3,13"/>
               <path d="M 0,11 C -2,24 4.5,28 0,33" fill="none"/>
            </g>
            <use xlink:href="#wavyray" transform="scale(-1)"/>
         </g>
         <use xlink:href="#2wavyrays" transform="rotate(90)"/>
      </g>
      <use xlink:href="#4wavyrays" transform="rotate(45)"/>
      <g id="4straightrays">
         <g id="2straightrays">
            <path id="straightray" d="M 0,0 H 6 L 0,33 L -6,0 H 0 V 33"/>
            <use xlink:href="#straightray" transform="scale(-1)"/>
         </g>
         <use xlink:href="#2straightrays" transform="rotate(90)"/>
      </g>
      <use xlink:href="#4straightrays" transform="rotate(45)"/>
      <circle r="11"/>
      <g id="face" fill="black" stroke="none" transform="scale(.1)">
         <g id="right">
            <path d="M 81,-44 C 74,-36 70,-50 45,-50 S 16,-35 12,-38 S 33,-59 41,-60 S 72,-53 81,-44"/>
            <path d="M 52,-35 C 59,-29 53,-16 46,-16 S 26,-28 32,-36"/>
            <path d="M 19,-26 C 20,-38 30,-40 46,-40 S 69,-28 75,-25 C 68,-25 62,-35 46,-35 S 30,-35 19,-25"/>
            <path d="M 22,-23 C 26,-29 31,-17 42,-17 S 59,-20 66,-25 S 56,-13 45,-13 S 19,-19 22,-23"/>
            <path d="M 56,-17 C 69,-24 61,-34 56,-36 C 58,-34 66,-24 56,-17"/>
            <path d="M 0,43 C 6,43 8,41 16,41 S 43,52 54,48 C 31,57 40,51 0,51 h -5"/>
            <path d="M 58,57 C 54,50 55,52 47,41 C 55,47 57,50 58,57"/>
            <path d="M 0,67 C 25,67 21,62 54,48 C 30,51 25,59 0,59 h -5"/>
            <path d="M 0,30 C 7,30 9,25 17,25 S 36,28 41,32 C 42,33 38,24 30,23 S 25,9 16,7 C 16,11 19,10 20,16 C 20,21 11,21 9,16 C 11,24 5,24 0,24"/>
         </g>
         <use xlink:href="#right" transform="scale(-1,1)"/>
         <path d="M 0,76 C -5,76 -18,79 0,79 S 5,76 0,76"/>
      </g>
   </g>
</svg>
